X:1
T:Title
%%score { 1 | ( 2 3 ) }
L:1/8
M:3/2
K:Bb
V:1 treble nm="Grand Piano"
V:2 bass 
V:3 bass 
V:1
 z4 z4 [DB]2 [DF]2 | [DF]4 [DFB]4 A2 B2 | c4 B2 A2 [FB]2 [Fd]2 | c6 e2 d2 c2 |[M:4/4] [DB]8 | %5
[M:2/4] [DB]2 [DF]2 |[M:6/4] [DF]4 [Fd]2- [Fd]2 [Gc]2 [Fd]2 | [Ee]4 A2- A2 B2 B2 | %8
 [GB]2 G2 F2- F2 F4 |[M:4/4] [DF]8 |] %10
V:2
 z4 z4 [B,,B,]2 [B,,B,]2 | [B,,B,]4 B,,4 [F,CF]2 [F,DF]2 | z4 F4 z4 | %3
 [F,A,F]6 [F,CF]2 [F,B,F]2 [F,A,E]2 |[M:4/4] [B,,B,]8 |[M:2/4] [B,,B,]2 [B,,B,]2 | %6
[M:6/4] [B,,B,]4 [B,,B,]2- [B,,B,]2 [E,G,]2 [D,=B,]2 | [C,C]4 [F,CE]2- [F,CE]2 [G,B,D]2 [F,B,D]2 | %8
 [E,B,]2 [E,B,E]2 [F,B,C]2- [F,B,C]2 [F,A,E]4 |[M:4/4] [B,,B,]8 |] %10
V:3
 x12 | x12 | [F,EF]4 [F,D]2 [E,C]2 [D,B,]2 [B,,B,]2 | x12 |[M:4/4] x8 |[M:2/4] x4 |[M:6/4] x12 | %7
 x12 | x12 |[M:4/4] x8 |] %10

